symbols/web/no_drinks/materialsymbolssharp/no_drinks_wght200grad200fill1_20px.svg

<svg xmlns="http://www.w3.org/2000/svg" height="20" width="20"><path d="m2.667 2.292 15.021 15.041-1.021 1-5.938-5.937v3.729h4.042v1.458H5.229v-1.458h4.042v-4.521L4.229 5.875 1.625 3.312Zm2.875.458h11.666v1.458l-4.75 5.459-3.77-3.771h5.124l1.521-1.688H7Z"/></svg>

<svg xmlns="http://www.w3.org/2000/svg" height="20" width="20"><path d="M5.229 17.583V16.125H9.271V11.604L4.229 5.875L1.625 3.312L2.667 2.292L17.688 17.333L16.667 18.333L10.729 12.396V16.125H14.771V17.583ZM12.458 9.667 8.688 5.896H13.812L15.333 4.208H7L5.542 2.75H17.208V4.208Z"/></svg>
